X:2213
T:Brosnan's
M:4/4
L:1/8
Q:160
C:Gan Ainm
S:Sarah Blair
R:Reel
K:D
FBBA Bcde|fdec dcBA|FA (3AAA A FADA|FA (3AAA A eAcA|FBBA Bcde|fdec dcBA|
fdec dcBA|1FBBA ~B3 A:|2FBBA ~B3 e||: fBBA Bcde|f2bf afeg|fB~B2fB~B2|e2
ce Aece| fBBA Bcde|f2  bf afeg|fdec dcBA|FBBA ~B3 B:|


